X: 2735
T: Banks Of Spey, The
R: strathspey
M: 4/4
K: Aminor
"Am"[A,2E2A2] A>B A>Bc<e|"G"d>cB<A {A}G2 G2|"Am"[A,2E2A2] A>B A>Bc>d|e>cd<e "C"g2 ~g2|
"Am"a>ge>cd>e g<a|"G"e<g g>B G2 G<B|"Am"A<E A>Bc>d e<g|"G"e>d Tc<B "Am"{B}A2Ac||
"Am"A<E A>c A<E A>c|"G"~B>cdB ~G2 G<B|"Am"A<E A>c A<E c>d|"C"e>cd<e g2~g2|
"Am"a>ge>cd>e g<a|"G"e<g g>B G2 G<B|"Am"A<E A>B c>d e<g|"G"e>d Tc<B {B}A2 A2||

